openttd-sans/glyphs/latin-1_supplement/230_ae.svg

<?xml version="1.0" encoding="UTF-8" standalone="no"?>
<!-- Created with Inkscape (http://www.inkscape.org/) -->

<svg
   width="1200"
   height="1200"
   viewBox="0 0 1200 1200"
   version="1.1"
   id="svg1"
   inkscape:version="1.2.2 (732a01da63, 2022-12-09)"
   sodipodi:docname="230_ae.svg"
   xml:space="preserve"
   xmlns:inkscape="http://www.inkscape.org/namespaces/inkscape"
   xmlns:sodipodi="http://sodipodi.sourceforge.net/DTD/sodipodi-0.dtd"
   xmlns="http://www.w3.org/2000/svg"
   xmlns:svg="http://www.w3.org/2000/svg"><sodipodi:namedview
     id="namedview1"
     pagecolor="#ffffff"
     bordercolor="#000000"
     borderopacity="0.25"
     inkscape:showpageshadow="2"
     inkscape:pageopacity="0.0"
     inkscape:pagecheckerboard="0"
     inkscape:deskcolor="#d1d1d1"
     inkscape:document-units="px"
     showgrid="true"
     inkscape:zoom="0.78606705"
     inkscape:cx="234.07672"
     inkscape:cy="781.10385"
     inkscape:window-width="1649"
     inkscape:window-height="1586"
     inkscape:window-x="32"
     inkscape:window-y="22"
     inkscape:window-maximized="0"
     inkscape:current-layer="layer1"
     showguides="false"><inkscape:grid
       id="grid1"
       units="px"
       originx="0"
       originy="0"
       spacingx="25"
       spacingy="25"
       empcolor="#0099e5"
       empopacity="0.30196078"
       color="#0099e5"
       opacity="0.14901961"
       empspacing="4"
       dotted="false"
       gridanglex="30"
       gridanglez="30"
       visible="true" /></sodipodi:namedview><defs
     id="defs1" /><g
     inkscape:label="Layer 1"
     inkscape:groupmode="layer"
     id="layer1"><path
       id="path2"
       style="fill:#000000;fill-opacity:0.555319;fill-rule:evenodd;stroke-width:0.999873"
       d="m 200,400 c -99.9999,0 -150,25 -150,25 v 100 c 0,0 50.00452,-24.06023 150,-25 95.71606,-0.89955 100,50.00005 100,100 l -50,0 C 125.00012,599.9473 0,675.0001 0,775 v 50 c 0,99.9999 125.00012,175 250,175 69.86186,0 113.17109,-22.32733 134.32812,-52.01953 C 424.10985,979.28549 478.76745,1000 550,1000 749.9996,1000 800,874.99985 800,800 H 650 c 0,74.61394 -50.00888,100.66495 -75,100 -33.80802,-0.89955 -75,-50.00015 -75,-125 V 700 H 800 V 600 C 800,525.00015 724.99965,400 550,400 488.88855,400.06446 440.02897,415.37371 402.24219,439.4707 337.15554,400.08057 254.011,400 200,400 Z m 375,100 c 49.99995,0 75,25.00015 75,100 H 500 c 0,-74.99985 25.0001,-100 75,-100 z M 300,700 v 75 75 c 0,24.99997 -2.10124,50 -50,50 -49.99995,0 -50,-25.00005 -50,-75 v -50 c 0,-49.99995 50.00005,-75 100,-75 z"
       sodipodi:nodetypes="sccsccssscsccssccsccssccsccssssc" /></g></svg>

<?xml version="1.0" encoding="UTF-8" standalone="no"?>
<!-- Created with Inkscape (http://www.inkscape.org/) -->

<svg
   width="1200"
   height="1200"
   viewBox="0 0 1200 1200"
   version="1.1"
   id="svg1"
   inkscape:version="1.2.2 (732a01da63, 2022-12-09)"
   sodipodi:docname="230_small-ae.svg"
   xml:space="preserve"
   xmlns:inkscape="http://www.inkscape.org/namespaces/inkscape"
   xmlns:sodipodi="http://sodipodi.sourceforge.net/DTD/sodipodi-0.dtd"
   xmlns="http://www.w3.org/2000/svg"
   xmlns:svg="http://www.w3.org/2000/svg"><sodipodi:namedview
     id="namedview1"
     pagecolor="#ffffff"
     bordercolor="#000000"
     borderopacity="0.25"
     inkscape:showpageshadow="2"
     inkscape:pageopacity="0.0"
     inkscape:pagecheckerboard="0"
     inkscape:deskcolor="#d1d1d1"
     inkscape:document-units="px"
     showgrid="true"
     inkscape:zoom="0.78606705"
     inkscape:cx="493.59657"
     inkscape:cy="781.10385"
     inkscape:window-width="1649"
     inkscape:window-height="1586"
     inkscape:window-x="32"
     inkscape:window-y="22"
     inkscape:window-maximized="0"
     inkscape:current-layer="layer1"
     showguides="false"><inkscape:grid
       id="grid1"
       units="px"
       originx="0"
       originy="0"
       spacingx="25"
       spacingy="25"
       empcolor="#0099e5"
       empopacity="0.30196078"
       color="#0099e5"
       opacity="0.14901961"
       empspacing="4"
       dotted="false"
       gridanglex="30"
       gridanglez="30"
       visible="true" /></sodipodi:namedview><defs
     id="defs1" /><g
     inkscape:label="Layer 1"
     inkscape:groupmode="layer"
     id="layer1"><path
       id="path2"
       style="fill:#000000;fill-opacity:0.555319;fill-rule:evenodd;stroke-width:0.999873"
       d="M 200 400 C 100.0001 400 50 425 50 425 L 50 525 C 50 525 100.00452 500.93977 200 500 C 295.71606 499.10045 350 550.00005 350 600 L 250 600 C 125.00012 599.9473 0 675.0001 0 775 L 0 825 C 0 924.9999 125.00012 1000 250 1000 C 319.86186 1000 363.17109 977.67267 384.32812 947.98047 C 424.10985 979.28549 478.76745 1000 550 1000 C 749.9996 1000 800 874.99985 800 800 L 650 800 C 650 874.61394 599.99112 900.66495 575 900 C 541.19198 899.10045 500 849.99985 500 775 L 500 700 L 800 700 L 800 600 C 800 525.00015 724.99965 400 550 400 C 488.88855 400.06446 440.02897 415.37371 402.24219 439.4707 C 337.15554 400.08057 254.011 400 200 400 z M 575 500 C 624.99995 500 650 525.00015 650 600 L 500 600 C 500 525.00015 525.0001 500 575 500 z M 300 700 L 300 775 L 300 850 C 300 874.99997 297.89876 900 250 900 C 200.00005 900 200 874.99995 200 825 L 200 775 C 200 725.00005 250.00005 700 300 700 z " /></g></svg>
